!!!COM: Haydn, Franz Joseph
!!!OTL: String Quartet in F Major
!!!OPS: Opus 74
!!!ONM: No. 2
!!!OMD: Andante grazioso
!!!OMV: 2
!!!SCT: H III:73
!!!SCA: Thematisch-bibliographisches Werkevererzeichnis (A. van Hoboken)
!!!YOR: Trautwein Edition
!!!ENC: Frances Bennion
!!!CDT: 1732/3/31/-1809/5/31/
!!!CNT: Oesterreich
!!!YEC: Copyright (c) 1994, 2000 Center for Computer Assisted Research in the Humanities
!!!YEM: Rights to all derivative editions reserved.
!!!YEM: Refer to licensing agreement for further details.
!!!YEN: United States of America
**kern	**kern	**kern	**kern
*k[b-e-]	*k[b-e-]	*k[b-e-]	*k[b-e-]
*B-:	*B-:	*B-:	*B-:
*clefF4	*clefC3	*clefF	*clefF
*M2/4	*M2/4	*M2/4	*M2/4
2r	8B-	8..dd	8..ff
.	8d	.	.
.	.	32cc	32ee-
.	8f#	8b-	8dd
.	8g	8b-	8dd
=2	=2	=2	=2
2r	4.e-	8b-	8dd
.	.	8cc	8ee-
.	.	4a	4cc
.	8f	.	.
=3	=3	=3	=3
2r	4d	8b-	8b-
.	.	8a-	8b
.	8e-	8..g	16.cc
.	.	.	32dd
.	8c	.	16.ee-
.	.	32ee-	32gg
=4	=4	=4	=4
2r	4f	4b-	4dd
.	8F	8a	16cc
.	.	.	16dd
.	8r	8r	16ee-
.	.	.	16ee
=5	=5	=5	=5
8BB-	2r	8..dd	8..ff
8D	.	.	.
.	.	32cc	32ee-
8F#	.	8b-	8dd
8G	.	8b-	8dd
=6	=6	=6	=6
8E	4r	8..b-	8..gg
8G	.	.	.
.	.	32a	32ff
8B-	8r	8g	8ee
8c#	8b-	8g	8ee
=7	=7	=7	=7
8d	8a	8f	8ff
8d-	4f	8a-	8b
8c	.	8a	8cc
8C	8B-	8g	8e
=8	=8	=8	=8
8F	4B-	4e	4g
8C	.	.	.
8FF	8A	8f	8f
8r	8r	8r	8r
=9	=9	=9	=9
2r	8..B	8..d	8g
.	.	.	16a-
.	.	.	16g
.	32c	32e-	.
.	8d	8f	8g
.	8d	8f	8g
=10	=10	=10	=10
8..C	4d	4f	8g
.	.	.	8b
32D	.	.	.
8E-	4c	4e-	8cc
8E-	.	.	8cc
=11	=11	=11	=11
8F	4.c	8a-	8..dd
8G	.	8g	.
.	.	.	32ee-
8A-	.	8f	8ff
8G	8d	8f	8b
=12	=12	=12	=12
8C	4B	4f	4dd
8GG	.	.	.
8CC	8c	8e-	8cc
8f	8a-	8b	8dd
=13	=13	=13	=13
8e-	8g	8..cc	8..ee-
8d	8f	.	.
.	.	32dd	32ff
8c	8e-	8ee-	8gg
8e-	8g-	8a	8cc
=14	=14	=14	=14
8d	8f	8..b-	8..dd
8c	8e-	.	.
.	.	32cc	32ee-
8B-	8d	8dd	8ff
8D	8F	8B-	8bb-
=15	=15	=15	=15
4E-	2G	[2B-	8c
.	.	.	16d
.	.	.	16c
4E	.	.	8c
.	.	.	8c
=16	=16	=16	=16
4F	4F	8B-]	[6..c
.	.	8G#	.
4r	4r	8A	.
.	.	.	48c]
.	.	.	16d
.	.	8r	16e-
.	.	.	16e
=17	=17	=17	=17
8BB-	8..d	8..f	4f
8D	.	.	.
.	32c	32e-	.
8F#	8B-	8d	4r
8G	8B-	8d	.
=18	=18	=18	=18
4.E-	8B-	8d	2r
.	8c	8e-	.
.	4A	4c	.
8F	.	.	.
=19	=19	=19	=19
4D	8B-	8..dd	8..ff
.	8d	.	.
.	.	32cc	32ee-
4r	8f#	8b-	8dd
.	8g	8b-	8dd
=20	=20	=20	=20
2r	4.e-	8b-	8dd
.	.	8cc	8ee-
.	.	4a	4cc
.	8f	.	.
=21	=21	=21	=21
2r	4d	8b-	8b-
.	.	8a-	8b
.	8e-	8..g	16.cc
.	.	.	32dd
.	8c	.	16.ee-
.	.	32ee-	32gg
=22	=22	=22	=22
2r	4f	4b-	4dd
.	8F	8a	16cc
.	.	.	16b
.	8r	8r	16cc
.	.	.	16dd
=23	=23	=23	=23
8A	2F	8..cc	8..ee-
8c	.	.	.
.	.	32b-	32dd
8e	.	8a	8cc
8f	.	8a	8cc
=24	=24	=24	=24
8AA	8C	8..ee-	8..gg
8C	8E-	.	.
.	.	32dd	32ff
8E-	8F#	8cc	8ee-
8F#	8A	8cc	8ee-
=25	=25	=25	=25
8G	8B-	4.b-	8dd
8G-	8d-	.	8ee
4F	8d	.	8ff
.	8e-	8a	8a
=26	=26	=26	=26
8BB-	4e-	4a	4cc
8F	.	.	.
8B-	8d	8b-	8b-
8r	8r	8r	8r
=27	=27	=27	=27
8..f	8..d	2r	2r
32e-	32c	.	.
8d	8B-	.	.
8d	8B-	.	.
=28	=28	=28	=28
8d	8B-	2r	4r
8e-	8c	.	.
4c	4F	.	32a
.	.	.	32b-
.	.	.	32a
.	.	.	32b-
.	.	.	32a
.	.	.	32cc
.	.	.	32ee-
.	.	.	32a
=29	=29	=29	=29
8B-	4D	2r	16b-
.	.	.	8bb-
8B	.	.	.
.	.	.	16aa-
16.c	4E-	.	16.gg
32d	.	.	32ff
16.e-	.	.	16.ee-
32g	.	.	32cc
=30	=30	=30	=30
4d	8F	2r	4b-
.	8f	.	.
16c	8F	.	8a
16d	.	.	.
16e-	8r	.	8r
16e	.	.	.
=31	=31	=31	=31
8..f	8..d	2r	32b-
.	.	.	32a
.	.	.	32cc
.	.	.	32b-
.	.	.	32dd
.	.	.	32cc
.	.	.	32ee-
32e-	32c	.	32dd
8d	8B-	.	8ff
8d	8B-	.	8ff
=32	=32	=32	=32
8..g	8..b-	2r	32ff
.	.	.	32ee
.	.	.	32gg
.	.	.	32ff
.	.	.	32aa
.	.	.	32gg
.	.	.	32bb-
32f	32a	.	32aa
8e	8g	.	16ccc
.	.	.	16bb-
8e	8c	.	16bb-
.	.	.	16bb-
=33	=33	=33	=33
8f	8F	8r	16bb-
.	.	.	16aa
8B	8D-	16r	16r
.	.	16ff	16aa-
8c	8C	16r	16r
.	.	16a-	16ff
8e	8C	16r	16r
.	.	16g	16ee
=34	=34	=34	=34
4g	8F	4b-	4ee
.	8C	.	.
8f	8F	8a	8ff
8r	8r	8r	8r
=35	=35	=35	=35
8G	8..B	8..d	2r
16A-	.	.	.
16G	.	.	.
.	32c	32e-	.
8G	8d	8f	.
8G	8d	8f	.
=36	=36	=36	=36
8G	8..C	8f	2r
8B	.	16a-	.
.	.	16g	.
.	32D	.	.
8c	8E-	8g	.
8c	8E-	8c	.
=37	=37	=37	=37
8d	8F	4.c	2r
8e-	8G	.	.
8f	8A-	.	.
8B	8G	8d	.
=38	=38	=38	=38
4d	8C	4B	4r
.	8G	.	.
8c	8c	8c	8r
8d	8B	8ff	8aa-
=39	=39	=39	=39
8..e-	8..c	8ee-	8gg
.	.	8dd	8ff
32f	32d	.	.
8g	8e-	8cc	8ee-
8c	8A	8ee-	8gg
=40	=40	=40	=40
8..d	8..B-	8dd	8ff
.	.	8cc	8ee-
32e-	32c	.	.
8f	8d	8b-	8dd
8B-	8d	8f	8bb-
=41	=41	=41	=41
8c	4.e-	2g	[2bb-
16d	.	.	.
16c	.	.	.
8c	.	.	.
8c	8e	.	.
=42	=42	=42	=42
4c	4f	4f	16bb-]
.	.	.	16aa
.	.	.	16gg
.	.	.	16ff
4r	4r	4r	16ee
.	.	.	16ff
.	.	.	16ee-
.	.	.	16cc
=43	=43	=43	=43
8..D	8..F	32B-	4b-
.	.	32A	.
.	.	32c	.
.	.	32B-	.
.	.	32d	.
.	.	32c	.
.	.	32e-	.
32C	32E-	32d	.
8BB-	8D	8f	4r
8BB-	8D	8f	.
=44	=44	=44	=44
8BB-	8D	16f	2r
.	.	16e	.
8C	8E-	16e-	.
.	.	16e-	.
4FF	4C	16e-	.
.	.	16c	.
.	.	16c	.
.	.	16A	.
=45	=45	=45	=45
8..f	8..d	4B-	32b-
.	.	.	32a
.	.	.	32cc
.	.	.	32b-
.	.	.	32dd
.	.	.	32cc
.	.	.	32ee-
32e-	32c	.	32dd
8d	8B-	4r	8ff
8d	8B-	.	8ff
=46	=46	=46	=46
8d	8B-	2r	16ff
.	.	.	16ee
8e-	8c	.	16ee-
.	.	.	16ee-
4c	4F	.	16ee-
.	.	.	16cc
.	.	.	16cc
.	.	.	16a
=47	=47	=47	=47
8B-	8B-	2r	16b-
.	.	.	8ff
8B	8D	.	.
.	.	.	16aa-
16.c	8E-	.	16.gg
32d	.	.	32ff
16.e-	8E-	.	16.ee-
32g	.	.	32cc
=48	=48	=48	=48
4d	8F	2r	4b-
.	8f	.	.
16c	8F	.	16a
16B	.	.	16g#
16c	8r	.	16a
16d	.	.	16b-
=49	=49	=49	=49
8..e-	2F	8..c	32a
.	.	.	32b-
.	.	.	32cc
.	.	.	32b-
.	.	.	32a
.	.	.	32b-
.	.	.	32cc
32d	.	32B-	32dd
8c	.	8A	16ee-
.	.	.	16ee-
8c	.	8A	16ee-
.	.	.	16ee-
=50	=50	=50	=50
8..g	2F	8..e-	32ee-
.	.	.	32dd
.	.	.	32cc
.	.	.	32b
.	.	.	32cc
.	.	.	32dd
.	.	.	32ee-
32f	.	32d	32ff
8e-	.	8c	32gg
.	.	.	32ff
.	.	.	32ee-
.	.	.	32dd
8e-	.	8c	32ee-
.	.	.	32ff
.	.	.	32gg
.	.	.	32aa
=51	=51	=51	=51
8d	8G	4.B-	8bb-
8e	8G-	.	8dd-
8f	4F	.	8dd
8c	.	16A	24ee-
.	.	.	24cc
.	.	16a	.
.	.	.	24a
=52	=52	=52	=52
4e-	8B-	4a	4cc
.	8F	.	.
8d	8B-	8b-	8b-
8r	8r	8r	8r
=53	=53	=53	=53
8BB-	2d-	8..ff	2f
8D-	.	.	.
.	.	32dd-	.
8F	.	8b-	.
8D-	.	8bb-	.
=54	=54	=54	=54
8BB-	[2e-	8.bb-	[2g-
8E-	.	.	.
.	.	32gg-	.
.	.	32ee-	.
8G-	.	8b-	.
8E-	.	8bb-	.
=55	=55	=55	=55
8BB-	2e-_	8..aa	2g-_
8E-	.	.	.
.	.	32ccc	.
8G-	.	8eee-	.
8E-	.	8aa	.
=56	=56	=56	=56
8BB-	4e-]	4ccc	4g-]
8A	.	.	.
8B-	4d-	16bb-	4f
.	.	16aa	.
8F	.	16bb-	.
.	.	16ccc	.
=57	=57	=57	=57
8BB-	2d-	8..ddd-	4f
8F	.	.	.
.	.	32bb-	.
8B-	.	8gg-	[4g-
8BB-	.	8gg-	.
=58	=58	=58	=58
8C-	8A-	8..gg-	8g-]
8C	8e-	.	4A-
.	.	32a-	.
8D-	4f	8..ff	.
8F	.	.	[8d-
.	.	32a-	.
=59	=59	=59	=59
8G-	8e-	8b-	8d-]
8G	8d-	8b-	8f-
8A-	8g-	8cc	8e-
8A-	8e-	16b-	8g-
.	.	16cc	.
=60	=60	=60	=60
8D-	4c	4ee-	4g-
8AA-	.	.	.
8DD-	8d-	8dd-	8f
8r	8r	8r	8r
=61	=61	=61	=61
8BB-	2A-	8..dd	2f
8D	.	.	.
.	.	32ff	.
8F	.	8aa-	.
8B-	.	32gg-	.
.	.	32ff	.
.	.	32ee-	.
.	.	32dd	.
=62	=62	=62	=62
8BB-	4.G-	8ee-	4.e-
8G-	.	16.ee-	.
.	.	32ff	.
8E-	.	8gg-	.
8r	[8e-	8b-	8g-
=63	=63	=63	=63
2r	8e-]	8a	8g-
.	8d-	8b-	8f
.	8A	16.cc	8..f
.	.	32dd-	.
.	8B-	16.ee-	.
.	.	32dd-	32b-
=64	=64	=64	=64
2r	8F	4dd-	4b-
.	8f	.	.
.	8F	8cc	8a
.	8F	8r	8r
=65	=65	=65	=65
8D-	[2B-	8..ff	2f
8F	.	.	.
.	.	32dd-	.
8B-	.	8b-	.
8D-	.	8bb-	.
=66	=66	=66	=66
8E-	4B-]	8..bb-	2g-
8G-	.	.	.
.	.	32gg-	.
8c-	[4c-	8ee-	.
8E-	.	8ee-	.
=67	=67	=67	=67
4F	4c-]	8.dd	4a-
.	.	32ff	.
.	.	32ee-	.
4G-	4B-	8.ee-	4g-
.	.	16gg-	.
=68	=68	=68	=68
4r	4e-	8.a	4g-
.	.	32cc	.
.	.	32b-	.
8r	4d-	8b-	4f
8BB-	.	8dd-	.
=69	=69	=69	=69
8E-	8e-	8cc	8g-
8E-	8e-	8cc	8g-
8F	8c	8a	8e-
8F	8c	16g	8e-
.	.	16a	.
=70	=70	=70	=70
8BB-	4c	4cc	4e-
8F	.	.	.
8B-	8B-	8b-	8d-
8r	8r	8r	8r
=71	=71	=71	=71
2r	8B	8..dd	8..ff
.	8d	.	.
.	.	32cc	32ee-
.	8f#	8b-	8dd
.	8g	8b-	8dd
=72	=72	=72	=72
2r	4.e-	8b-	8dd
.	.	8cc	8ee-
.	.	4a	4cc
.	8f	.	.
=73	=73	=73	=73
2r	4d	8b-	8b-
.	.	8a-	8b
.	8e-	8..g	16.cc
.	.	.	32dd
.	8c	.	16.ee-
.	.	32ee-	32gg
=74	=74	=74	=74
2r	4f	4b-	4dd
.	8F	8a	16cc
.	.	.	16dd
.	8r	8r	16ee-
.	.	.	16ee
=75	=75	=75	=75
8BB-	2r	8..dd	8..ff
8D	.	.	.
.	.	32cc	32ee-
8F#	.	8b-	8dd
8G	.	8b-	8dd
=76	=76	=76	=76
8E	4r	8..b-	8..gg
8G	.	.	.
.	.	32a	32ff
8B-	8r	8g	8ee
8c#	8b-	8g	8ee
=77	=77	=77	=77
8d	8a	8f	8ff
8d-	4f	8a-	8b
8c	.	8a	8cc
8C	8B-	8g	8e
=78	=78	=78	=78
8F	4B-	4e	4g
8C	.	.	.
8FF	8A	8f	8f
8r	8r	8r	8r
=79	=79	=79	=79
2r	24B-	8..dd	8..ff
.	24d	.	.
.	24c	.	.
.	24B-	.	.
.	24d	.	.
.	24e-	.	.
.	.	32cc	32ee-
.	24f	8b-	8dd
.	24a	.	.
.	24f#	.	.
.	24g	8b-	8dd
.	24f#	.	.
.	24g	.	.
=80	=80	=80	=80
2r	24c	8b-	8dd
.	24e-	.	.
.	24d	.	.
.	24c	8cc	8ee-
.	24d	.	.
.	24e-	.	.
.	24f	4a	4cc
.	24e	.	.
.	24g	.	.
.	24f	.	.
.	24e-	.	.
.	24c	.	.
=81	=81	=81	=81
2r	24d	8b-	8b-
.	24f	.	.
.	24e-	.	.
.	24d	8f	8b
.	24a-	.	.
.	24d	.	.
.	24e-	8..g	16.cc
.	24c	.	.
.	24B	.	.
.	.	.	32dd
.	24c	.	16.ee-
.	24d	.	.
.	24e-	.	.
.	.	32cc	32gg
=82	=82	=82	=82
2r	24f	4b-	4dd
.	24e	.	.
.	24f	.	.
.	24F	.	.
.	24G	.	.
.	24E	.	.
.	24F	8a	16cc
.	24e	.	.
.	.	.	16dd
.	24f	.	.
.	24e-	8r	16ee-
.	24d	.	.
.	.	.	16ee
.	24c	.	.
=83	=83	=83	=83
2r	24B-	8..dd	8..ff
.	24d	.	.
.	24e-	.	.
.	24e	.	.
.	24f	.	.
.	24f#	.	.
.	.	32cc	32ee-
.	24g	8b-	8dd
.	24f#	.	.
.	24g	.	.
.	24G	8b-	8dd
.	24A	.	.
.	24F	.	.
=84	=84	=84	=84
2r	24E	8..b-	8..gg
.	24F	.	.
.	24G	.	.
.	24A	.	.
.	24B-	.	.
.	24B	.	.
.	.	32a	32ff
.	24c	8g	8ee
.	24C	.	.
.	24c	.	.
.	24c#	8g	8ee
.	24C#	.	.
.	24c#	.	.
=85	=85	=85	=85
2r	24d	8f	8ff
.	24f	.	.
.	24g	.	.
.	24a-	8d	8b
.	24g	.	.
.	24f	.	.
.	24a	8c	8cc
.	24f	.	.
.	24c	.	.
.	24B-	8G	8e
.	24G	.	.
.	24C	.	.
=86	=86	=86	=86
2r	24F	4B-	4g
.	24c	.	.
.	24B	.	.
.	24c	.	.
.	24d	.	.
.	24e	.	.
.	8f	8A	8f
.	8r	8r	8r
=87	=87	=87	=87
24FF#	8..B	8..d	8g
24GG	.	.	.
24GG	.	.	.
24GG	.	.	16a-
24GG	.	.	.
.	.	.	16g
24GG	.	.	.
.	32c	32e-	.
24GG	8d	8f	8g
24BB	.	.	.
24D	.	.	.
24G	8d	8f	8g
24A	.	.	.
24B	.	.	.
=88	=88	=88	=88
24c	4d	4f	8g
24C	.	.	.
24BB	.	.	.
24C	.	.	8b
24E-	.	.	.
24D	.	.	.
24E-	4c	4e-	8cc
24G	.	.	.
24B	.	.	.
24c	.	.	8cc
24G	.	.	.
24E-	.	.	.
=89	=89	=89	=89
24F	4.c	8a-	8..dd
24c	.	.	.
24F	.	.	.
24G	.	8g	.
24c	.	.	.
24G	.	.	.
.	.	.	32ee-
24A-	.	8f	8ff
24AA-	.	.	.
24A-	.	.	.
24GG	8d	8f	8b
24G	.	.	.
24GG	.	.	.
=90	=90	=90	=90
24CC	4B	4f	4dd
24GG	.	.	.
24FF#	.	.	.
24GG	.	.	.
24AA	.	.	.
24BB	.	.	.
8C	8G	8e-	8cc
8f	8a-	8b	8dd
=91	=91	=91	=91
8e-	8g	24b	24dd
.	.	24cc	24ee-
.	.	24cc	24ee-
8d	8f	24cc	24ee-
.	.	24dd	24ff
.	.	24dd	24ff
8c	8e-	24dd	24ff
.	.	24ee-	24gg
.	.	24dd	24ff
8e-	8g-	24cc	24ee-
.	.	24b-	24dd
.	.	24a	24cc
=92	=92	=92	=92
8d	8f	24a	24cc
.	.	24b-	24dd
.	.	24b-	24dd
8c	8e-	24b-	24dd
.	.	24cc	24ee-
.	.	24cc	24ee-
8B-	8d	24cc	24ee-
.	.	24dd	24ff
.	.	24dd	24ff
8D	8F	24dd	24ff
.	.	24B-	24bb-
.	.	24B-	24bb-
=93	=93	=93	=93
4E-	2G	[2B-	24bb-
.	.	.	24c
.	.	.	24B
.	.	.	24c
.	.	.	24B
.	.	.	24c
4E	.	.	24d-
.	.	.	24c
.	.	.	24c
.	.	.	24B
.	.	.	24c
.	.	.	24c
=94	=94	=94	=94
4F	4F	8B-]	24c
.	.	.	24e
.	.	.	24g
.	.	8G	24b-
.	.	.	24g
.	.	.	24e
4r	4r	24A	8f
.	.	24A	.
.	.	24B-	.
.	.	24c	8r
.	.	24d	.
.	.	24e-	.
=95	=95	=95	=95
24BB-	8..d	8..f	2r
24D	.	.	.
24E-	.	.	.
24E	.	.	.
24F	.	.	.
24F#	.	.	.
.	32c	32e-	.
24G	8B-	8d	.
24A	.	.	.
24F#	.	.	.
24G	8B-	8d	.
24F#	.	.	.
24G	.	.	.
=96	=96	=96	=96
24C	8B-	8d	2r
24E-	.	.	.
24D	.	.	.
24C	8c	8e-	.
24D	.	.	.
24E-	.	.	.
24F	4A	4c	.
24E	.	.	.
24G	.	.	.
24F	.	.	.
24E-	.	.	.
24C	.	.	.
=97	=97	=97	=97
4BB-	24B-	8..dd	8..ff
.	24d	.	.
.	24e-	.	.
.	24e	.	.
.	24f	.	.
.	24f#	.	.
.	.	32cc	32ee-
4r	24g	8b-	8dd
.	24a	.	.
.	24f#	.	.
.	24g	8b-	8dd
.	24f#	.	.
.	24g	.	.
=98	=98	=98	=98
2r	24c	8b-	8dd
.	24e-	.	.
.	24d	.	.
.	24c	8cc	8ee-
.	24d	.	.
.	24e-	.	.
.	24f	4a	4cc
.	24e	.	.
.	24g	.	.
.	24f	.	.
.	24e-	.	.
.	24c	.	.
=99	=99	=99	=99
2r	24d	8b-	8b-
.	24f	.	.
.	24e-	.	.
.	24d	8a-	8b
.	24f	.	.
.	24d	.	.
.	24e-	8..g	16.cc
.	24c	.	.
.	24B	.	.
.	.	.	32dd
.	24c	.	16.ee-
.	24d	.	.
.	24e-	.	.
.	.	32ee-	32gg
=100	=100	=100	=100
2r	24f	4b-	4dd
.	24e	.	.
.	24f	.	.
.	24F	.	.
.	24G	.	.
.	24E	.	.
.	8F	8a	24cc
.	.	.	24a
.	.	.	24b-
.	8r	8r	24b
.	.	.	24cc
.	.	.	24dd
=101	=101	=101	=101
24FF	4A	8..cc	8..ee-
24AA	.	.	.
24BB-	.	.	.
24C	.	.	.
24D	.	.	.
24E	.	.	.
.	.	32b-	32dd
24F	4r	8a	8cc
24E	.	.	.
24F	.	.	.
24FF	.	8a	8cc
24F	.	.	.
24FF	.	.	.
=102	=102	=102	=102
24FF	24A	8..ee-	8..gg
24AA	24c	.	.
24BB-	24d	.	.
24C	24e-	.	.
24D	24f	.	.
24E	24g	.	.
.	.	32dd	32ff
24F	24a	8cc	8ee-
24E	24g#	.	.
24F	24a	.	.
24FF	24A	8cc	8ee-
24F	24a	.	.
24FF	24A	.	.
=103	=103	=103	=103
24GG	8B-	4.b-	8dd
24G	.	.	.
24G	.	.	.
24G-	8d-	.	8ee
24GG-	.	.	.
24GG-	.	.	.
24FF	8d	.	8ff
24F	.	.	.
24F	.	.	.
24FF	8c	8e-	8a
24F	.	.	.
24F	.	.	.
=104	=104	=104	=104
4BB-	24B-	4d	4b-
.	24B-	.	.
.	24B-	.	.
.	24B-	.	.
.	24B-	.	.
.	24B-	.	.
4r	24B-	4r	4r
.	24B-	.	.
.	24B-	.	.
.	24B-	.	.
.	24B-	.	.
.	24B-	.	.
=105	=105	=105	=105
2r	24B-	8..gg	8..bb-
.	24e-	.	.
.	24d	.	.
.	24e-	.	.
.	24g	.	.
.	24a	.	.
.	.	32ff	32aa
.	24b-	8ee-	8gg
.	24b-	.	.
.	24b-	.	.
.	24b-	8ee-	8gg
.	24b-	.	.
.	24b-	.	.
=106	=106	=106	=106
2r	24B-	8..dd	8..ff
.	24d	.	.
.	24e-	.	.
.	24f	.	.
.	24g	.	.
.	24a	.	.
.	.	32cc	32ee-
.	24b-	8b-	8dd
.	24f	.	.
.	24d	.	.
.	24B-	8b-	8dd
.	24F	.	.
.	24D	.	.
=107	=107	=107	=107
2r	8E-	8g	24cc
.	.	.	24gg
.	.	.	24ee-
.	8r	8r	24dd
.	.	.	24cc
.	.	.	24b-
.	8F	8e- 8c	24a
.	.	.	24g
.	.	.	24f
.	8r	8r	24e-
.	.	.	24d
.	.	.	24c
=108	=108	=108	=108
2r	4B-	4d 4B-	24B-
.	.	.	24bb-
.	.	.	24bb-
.	.	.	24bb-
.	.	.	24bb-
.	.	.	24bb-
.	4r	4r	24bb-
.	.	.	24bb-
.	.	.	24bb-
.	.	.	24bb-
.	.	.	24bb-
.	.	.	24bb-
=109	=109	=109	=109
24BB-	8..b-	8..gg	24bb-
24E-	.	.	24bb-
24D	.	.	24bb-
24E-	.	.	24bb-
24G	.	.	24bb-
24A	.	.	24bb-
.	32a	32ff	.
24B-	8g	8ee-	24bb-
24B-	.	.	24bb-
24B-	.	.	24bb-
24B-	8g	8ee-	24bb-
24B-	.	.	24bb-
24B-	.	.	24bb-
=110	=110	=110	=110
24BB-	8..f	8..dd	24bb-
24D	.	.	24bb-
24E-	.	.	24bb-
24F	.	.	24bb-
24G	.	.	24bb-
24A	.	.	24bb-
.	32e-	32cc	.
24B-	8d	8b-	24bb-
24F	.	.	24bb-
24D	.	.	24bb-
24BB-	8d	8b-	24bb-
24FF	.	.	24bb-
24DD	.	.	24bb-
=111	=111	=111	=111
8EE-	8g	8cc	24bb-
.	.	.	24gg
.	.	.	24ee-
8r	8r	8r	24dd
.	.	.	24cc
.	.	.	24b-
8FF	8c	8e-	24a
.	.	.	24g
.	.	.	24f
8r	8r	8r	24e-
.	.	.	24d
.	.	.	24c
=112	=112	=112	=112
24BB-	24F	24d	24B-
24BB-	24F	24d	24B-
24BB-	24F	24d	24B-
24BB-	24G-	24A	24e-
24BB-	24G-	24A	24e-
24BB-	24G-	24A	24e-
24BB-	24F	24B-	24d
24BB-	24F	24B-	24d
24BB-	24F	24B-	24d
24BB-	24G-	24A	24e-
24BB-	24G-	24A	24e-
24BB-	24G-	24A	24e-
=113	=113	=113	=113
16BB-	16F	16B-	16d
16r	16r	16r	16r
24BB-	24G-	24A	24e-
24BB-	24G-	24A	24e-
24BB-	24G-	24A	24e-
24BB-	24F	24B-	24d
24BB-	24F	24B-	24d
24BB-	24F	24B-	24d
24BB-	24G-	24A	24e-
24BB-	24G-	24A	24e-
24BB-	24G-	24A	24e-
=114	=114	=114	=114
8BB-	8F	8B-	8d
8r	8r	8r	8r
8BB-	8F	8B-	8d
16.r	16.r	16.r	16.r
32BB-	32F	32B-	32d
=115	=115	=115	=115
4BB-	4F	4B-	4d
4r	4r	4r	4r
==	==	==	==
*-	*-	*-	*-
!!!RWG1: This file contains only pitch and duration data.
!!!RWG2: Transposing instruments are not transposed.
!!!RWG3: Spines may have incompatible meters.
!!!RWG4: Durations of rests and tied notes may be interpreted.
!!!RWG: Key is interpreted using the Humdrum key tool.
!!!GTL: 6 Quartetti ("Apponyi")
!!!AFT: stage1
!!!END: 1997/04/15
!!!KEY: 1372274456
!!!EMD: Converted from MuseData to Humdrum Dec 16, 2000, by Andreas Kornstaedt using muse2kern.
!!!EMD: Manual editing by Craig Sapp, Nov 2001
